resources/svg/donut-chart-o.svg

<svg width="15" height="15" viewBox="0 0 15 15" fill="none" xmlns="http://www.w3.org/2000/svg">
<path d="M7.5 14C3.91015 14 1 11.0899 1 7.5H0C0 11.6421 3.35786 15 7.5 15V14ZM14 7.5C14 11.0899 11.0899 14 7.5 14V15C11.6421 15 15 11.6421 15 7.5H14ZM7.5 1C11.0899 1 14 3.91015 14 7.5H15C15 3.35786 11.6421 0 7.5 0V1ZM7.5 0C3.35786 0 0 3.35786 0 7.5H1C1 3.91015 3.91015 1 7.5 1V0ZM10.197 6.45957L13.697 4.95957L13.303 4.04043L9.80304 5.54043L10.197 6.45957ZM7 0V4.5H8V0H7ZM9.14645 9.85355L12.1464 12.8536L12.8536 12.1464L9.85355 9.14645L9.14645 9.85355ZM7.5 10C6.11929 10 5 8.88071 5 7.5H4C4 9.433 5.567 11 7.5 11V10ZM10 7.5C10 8.88071 8.88071 10 7.5 10V11C9.433 11 11 9.433 11 7.5H10ZM7.5 5C8.88071 5 10 6.11929 10 7.5H11C11 5.567 9.433 4 7.5 4V5ZM7.5 4C5.567 4 4 5.567 4 7.5H5C5 6.11929 6.11929 5 7.5 5V4Z" fill="black"/>
</svg>

<svg viewBox="0 0 15 15" fill="none" xmlns="http://www.w3.org/2000/svg" fill="currentColor"><path d="M7.5 14A6.5 6.5 0 011 7.5H0A7.5 7.5 0 007.5 15v-1zM14 7.5A6.5 6.5 0 017.5 14v1A7.5 7.5 0 0015 7.5h-1zM7.5 1A6.5 6.5 0 0114 7.5h1A7.5 7.5 0 007.5 0v1zm0-1A7.5 7.5 0 000 7.5h1A6.5 6.5 0 017.5 1V0zm2.697 6.46l3.5-1.5-.394-.92-3.5 1.5.394.92zM7 0v4.5h1V0H7zm2.146 9.854l3 3 .708-.708-3-3-.708.708zM7.5 10A2.5 2.5 0 015 7.5H4A3.5 3.5 0 007.5 11v-1zM10 7.5A2.5 2.5 0 017.5 10v1A3.5 3.5 0 0011 7.5h-1zM7.5 5A2.5 2.5 0 0110 7.5h1A3.5 3.5 0 007.5 4v1zm0-1A3.5 3.5 0 004 7.5h1A2.5 2.5 0 017.5 5V4z" fill="currentColor"/></svg>
